icons/mimetypes/64/message-rfc822.svg

<svg width="64" xmlns="http://www.w3.org/2000/svg" viewBox="0 0 64 64" height="64">
 <defs>
  <linearGradient id="a" y1="3" y2="61" x2="0" gradientUnits="userSpaceOnUse" gradientTransform="matrix(1 0 0-1 0 64)">
   <stop stop-color="#22a7f0"/>
   <stop offset="1" stop-color="#19b5fe"/>
  </linearGradient>
  <linearGradient id="b" y1="61" y2="47" x2="0" gradientUnits="userSpaceOnUse" gradientTransform="matrix(1 0 0-1 0 64)">
   <stop stop-color="#c8e3fe"/>
   <stop offset="1" stop-color="#ffffff"/>
  </linearGradient>
  <linearGradient id="c" y1="17" x1="40" y2="31" x2="54" gradientUnits="userSpaceOnUse">
   <stop stop-color="#383e51"/>
   <stop offset="1" stop-color="#655c6f" stop-opacity="0"/>
  </linearGradient>
 </defs>
 <path fill="url(#a)" d="m10 61v-58h30l14 14v44h-14z"/>
 <g transform="scale(1-1)">
  <rect width="30" x="10" y="-4" fill="#ffffff" height="1" fill-opacity=".412"/>
  <rect width="44" x="10" y="-61" fill="#2e3132" height="1" fill-opacity=".294"/>
 </g>
 <g fill-rule="evenodd">
  <path fill="url(#b)" d="m54 17l-14-14v14z"/>
  <path opacity=".2" fill="url(#c)" d="m40 17l14 14v-14z"/>
 </g>
 <path fill="#ffffff" color-rendering="auto" color-interpolation-filters="linearRGB" shape-rendering="auto" image-rendering="auto" text-rendering="auto" color-interpolation="sRGB" color="#000000" d="m18 22v22h28v-22zm1 1l9 9-9 9zm1.414 0h23.17l-11.586 11.586zm24.586 0v18l-9-9zm-16.293 9.707l3.293 3.293 3.293-3.293 9.707 9.707v.586h-26v-.586z"/>
</svg>

<?xml version="1.0" encoding="UTF-8" standalone="no"?>
<svg
   xmlns:dc="http://purl.org/dc/elements/1.1/"
   xmlns:cc="http://creativecommons.org/ns#"
   xmlns:rdf="http://www.w3.org/1999/02/22-rdf-syntax-ns#"
   xmlns:svg="http://www.w3.org/2000/svg"
   xmlns="http://www.w3.org/2000/svg"
   xmlns:xlink="http://www.w3.org/1999/xlink"
   xmlns:sodipodi="http://sodipodi.sourceforge.net/DTD/sodipodi-0.dtd"
   xmlns:inkscape="http://www.inkscape.org/namespaces/inkscape"
   width="64"
   viewBox="0 0 64 64"
   height="64"
   id="svg2"
   version="1.1"
   inkscape:version="0.91 r13725"
   sodipodi:docname="message-rfc822.svg">
  <metadata
     id="metadata39">
    <rdf:RDF>
      <cc:Work
         rdf:about="">
        <dc:format>image/svg+xml</dc:format>
        <dc:type
           rdf:resource="http://purl.org/dc/dcmitype/StillImage" />
      </cc:Work>
    </rdf:RDF>
  </metadata>
  <sodipodi:namedview
     pagecolor="#ffffff"
     bordercolor="#666666"
     borderopacity="1"
     objecttolerance="10"
     gridtolerance="10"
     guidetolerance="10"
     inkscape:pageopacity="0"
     inkscape:pageshadow="2"
     inkscape:window-width="640"
     inkscape:window-height="480"
     id="namedview37"
     showgrid="false"
     inkscape:snap-bbox="true"
     inkscape:bbox-nodes="true"
     inkscape:zoom="1"
     inkscape:cx="64.623351"
     inkscape:cy="-1.1159948"
     inkscape:current-layer="svg2">
    <inkscape:grid
       type="xygrid"
       id="grid4223" />
  </sodipodi:namedview>
  <defs
     id="defs4">
    <linearGradient
       id="a"
       y1="3"
       y2="61"
       x2="0"
       gradientUnits="userSpaceOnUse"
       gradientTransform="matrix(1,0,0,-1,-50,64)">
      <stop
         stop-color="#22a7f0"
         id="stop7" />
      <stop
         offset="1"
         stop-color="#19b5fe"
         id="stop9" />
    </linearGradient>
    <linearGradient
       id="b"
       y1="61"
       y2="47"
       x2="0"
       gradientUnits="userSpaceOnUse"
       gradientTransform="matrix(1,0,0,-1,-50,64)">
      <stop
         stop-color="#c8e3fe"
         id="stop12" />
      <stop
         offset="1"
         stop-color="#ffffff"
         id="stop14" />
    </linearGradient>
    <linearGradient
       id="c"
       y1="17"
       x1="40"
       y2="31"
       x2="54"
       gradientUnits="userSpaceOnUse"
       gradientTransform="translate(-50,0)">
      <stop
         stop-color="#383e51"
         id="stop17" />
      <stop
         offset="1"
         stop-color="#655c6f"
         stop-opacity="0"
         id="stop19" />
    </linearGradient>
    <linearGradient
       gradientTransform="translate(46,296.36)"
       x2="54"
       gradientUnits="userSpaceOnUse"
       y2="31"
       x1="40"
       y1="17"
       id="a-3">
      <stop
         id="stop4172"
         stop-color="#060606" />
      <stop
         id="stop4174"
         stop-opacity="0"
         offset="1" />
    </linearGradient>
    <linearGradient
       gradientTransform="translate(-2,-36)"
       x2="0"
       gradientUnits="userSpaceOnUse"
       y2="336.36"
       y1="392.36"
       id="b-6">
      <stop
         id="stop4177"
         stop-opacity="0"
         stop-color="#ffffff" />
      <stop
         id="stop4179"
         stop-opacity=".2"
         stop-color="#ffffff"
         offset="1" />
    </linearGradient>
    <path
       d="m56 357.36v-58h30l14 14v44h-14z"
       id="c-7" />
  </defs>
  <g
     id="g4252">
    <use
       transform="translate(-46,-296.36)"
       id="use4184"
       xlink:href="#c-7"
       style="fill:#04c3f0;fill-opacity:1"
       x="0"
       y="0"
       width="100%"
       height="100%" />
    <g
       id="g4186"
       transform="matrix(1,0,0,-1,-46,-296.36)"
       style="color:#000000;color-interpolation:sRGB;color-interpolation-filters:linearRGB;color-rendering:auto;image-rendering:auto;shape-rendering:auto;text-rendering:auto">
      <rect
         id="rect4188"
         height="1"
         width="30"
         y="-300.35999"
         x="56"
         style="opacity:0.5;fill:#ffffff" />
      <rect
         id="rect4190"
         height="1"
         width="44"
         y="-357.35999"
         x="56"
         style="opacity:0.25" />
    </g>
    <g
       transform="translate(-46,-296.36)"
       id="g4192"
       style="fill-rule:evenodd">
      <path
         id="path4194"
         d="m 100,313.36 -14,-14 0,14 z"
         inkscape:connector-curvature="0"
         style="opacity:0.5;fill:#ffffff" />
      <path
         style="opacity:0.2;fill:url(#a-3)"
         id="path4196"
         d="m 86,313.36 14,14 0,-14 z"
         inkscape:connector-curvature="0" />
    </g>
    <path
       sodipodi:nodetypes="ccccccccccccccccccccccccc"
       style="color:#000000;clip-rule:nonzero;display:inline;overflow:visible;visibility:visible;opacity:0.9;isolation:auto;mix-blend-mode:normal;color-interpolation:sRGB;color-interpolation-filters:linearRGB;solid-color:#000000;solid-opacity:1;fill:#ffffff;fill-opacity:1;fill-rule:nonzero;stroke-width:1;stroke-linecap:butt;stroke-linejoin:miter;stroke-miterlimit:4;stroke-dasharray:none;stroke-dashoffset:0;stroke-opacity:1;color-rendering:auto;image-rendering:auto;shape-rendering:auto;text-rendering:auto;enable-background:accumulate"
       inkscape:connector-curvature="0"
       id="path35"
       d="m 18,22 0,22 28,0 0,-22 z m 1,1 9,9 -9,9 z m 1.414,0 23.17,0 -11.586,11.586 z M 45,23 45,41 36,32 Z M 28.707,32.707 32,36 35.293,32.707 45,42.414 45,43 19,43 19,42.414 Z" />
    <use
       transform="translate(-46,-296.36)"
       style="fill:url(#b-6)"
       id="use4200"
       xlink:href="#c-7"
       x="0"
       y="0"
       width="100%"
       height="100%" />
  </g>
</svg>
